media/theme/theme-1/line.svg

<svg width="180" height="27" viewBox="0 0 180 27" fill="none" xmlns="http://www.w3.org/2000/svg">
<rect width="180" height="27" fill="none" fill-opacity="0.04"/>
<path fill-rule="evenodd" clip-rule="evenodd" d="M71.4215 13.5L76.3164 8L82.3238 1.25L85.8838 5.25L89.4437 1.25L93.2262 5.25L97.0086 1.25L107.911 13.5L97.0086 26L93.2262 22L89.6662 26L85.8838 22L82.5463 26L71.4215 13.5ZM82.5463 4.25L84.5488 6.5L78.5414 13.5L84.5488 20.5L82.3238 23L74.0915 13.75L82.5463 4.25ZM81.2114 13.5L85.8838 8.25L88.1088 10.75L85.8838 13.5L88.3313 16.25L86.1063 19L81.2114 13.5ZM94.5612 6.75L96.7861 4.25L105.241 13.5L96.7861 23L94.5612 20.5L100.569 13.5L94.5612 6.75ZM93.2262 8.25L97.8986 13.5L93.2262 19L91.0012 16.5L93.4487 13.75L91.0012 10.75L93.2262 8.25ZM87.2188 6.5L89.4437 4L91.8912 6.75L89.6662 9.25L87.2188 6.5ZM87.2188 20.5L89.6662 17.75L91.8912 20.25L89.4437 23L87.2188 20.5ZM88.3313 13.75L89.6662 12.25L90.7787 13.5L89.4437 15L88.3313 13.75ZM0.889984 12.5H65.4141V15H0.889984V12.5ZM113.918 12.5H178.443V15H113.918V12.5Z" fill="#000"/>
</svg>

<svg fill="none" height="27" width="180" xmlns="http://www.w3.org/2000/svg"><path d="M0 0h180v27H0z"/><path clip-rule="evenodd" d="M71.421 13.5 76.316 8l6.008-6.75 3.56 4 3.56-4 3.782 4 3.783-4L107.91 13.5 97.009 26l-3.783-4-3.56 4-3.782-4-3.338 4zm11.125-9.25L84.55 6.5l-6.008 7 6.008 7-2.225 2.5-8.232-9.25zm-1.335 9.25 4.673-5.25 2.225 2.5-2.225 2.75 2.447 2.75L86.106 19zm13.35-6.75 2.225-2.5 8.455 9.25-8.455 9.5-2.225-2.5 6.008-7zm-1.335 1.5L97.9 13.5 93.226 19l-2.225-2.5 2.448-2.75-2.448-3zM87.22 6.5 89.444 4l2.447 2.75-2.225 2.5zm0 14 2.447-2.75 2.225 2.5L89.444 23zm1.112-6.75 1.335-1.5 1.113 1.25-1.335 1.5zM.89 12.5h64.524V15H.89zm113.028 0h64.525V15h-64.525z" fill="#000" fill-rule="evenodd"/></svg>
